packages/icons/raw/shadcn/party-popper.svg

<svg width="24" height="24" viewBox="0 0 24 24" fill="none" xmlns="http://www.w3.org/2000/svg">
<path d="M5.8 11.3L2 22L12.7 18.21" stroke="black" stroke-width="2" stroke-linecap="round" stroke-linejoin="round"/>
<path d="M4 3H4.01" stroke="black" stroke-width="2" stroke-linecap="round" stroke-linejoin="round"/>
<path d="M22 8H22.01" stroke="black" stroke-width="2" stroke-linecap="round" stroke-linejoin="round"/>
<path d="M15 2H15.01" stroke="black" stroke-width="2" stroke-linecap="round" stroke-linejoin="round"/>
<path d="M22 20H22.01" stroke="black" stroke-width="2" stroke-linecap="round" stroke-linejoin="round"/>
<path d="M22 2L19.76 2.75C19.1224 2.96239 18.5783 3.38964 18.2208 3.95872C17.8633 4.52781 17.7146 5.20339 17.8 5.87C17.9 6.73 17.23 7.5 16.35 7.5H15.97C15.11 7.5 14.37 8.1 14.21 8.94L14 10" stroke="black" stroke-width="2" stroke-linecap="round" stroke-linejoin="round"/>
<path d="M22 13.0001L21.18 12.6701C20.32 12.3301 19.36 12.8701 19.2 13.7801C19.09 14.4801 18.48 15.0001 17.77 15.0001H17" stroke="black" stroke-width="2" stroke-linecap="round" stroke-linejoin="round"/>
<path d="M11 2L11.33 2.82C11.67 3.68 11.13 4.64 10.22 4.8C9.52 4.9 9 5.52 9 6.23V7" stroke="black" stroke-width="2" stroke-linecap="round" stroke-linejoin="round"/>
<path d="M11 13C12.93 14.93 13.83 17.17 13 18C12.17 18.83 9.93002 17.93 8.00002 16C6.07002 14.07 5.17002 11.83 6.00002 11C6.83002 10.17 9.07002 11.07 11 13Z" stroke="black" stroke-width="2" stroke-linecap="round" stroke-linejoin="round"/>
</svg>

<!-- @license lucide-static v1.23.0 - ISC -->
<svg
  class="lucide lucide-party-popper"
  xmlns="http://www.w3.org/2000/svg"
  width="24"
  height="24"
  viewBox="0 0 24 24"
  fill="none"
  stroke="currentColor"
  stroke-width="2"
  stroke-linecap="round"
  stroke-linejoin="round"
>
  <path d="M5.8 11.3 2 22l10.7-3.79" />
  <path d="M4 3h.01" />
  <path d="M22 8h.01" />
  <path d="M15 2h.01" />
  <path d="M22 20h.01" />
  <path d="m22 2-2.24.75a2.9 2.9 0 0 0-1.96 3.12c.1.86-.57 1.63-1.45 1.63h-.38c-.86 0-1.6.6-1.76 1.44L14 10" />
  <path d="m22 13-.82-.33c-.86-.34-1.82.2-1.98 1.11c-.11.7-.72 1.22-1.43 1.22H17" />
  <path d="m11 2 .33.82c.34.86-.2 1.82-1.11 1.98C9.52 4.9 9 5.52 9 6.23V7" />
  <path d="M11 13c1.93 1.93 2.83 4.17 2 5-.83.83-3.07-.07-5-2-1.93-1.93-2.83-4.17-2-5 .83-.83 3.07.07 5 2Z" />
</svg>
